X: 27498
T: Molly's
R: reel
M: 4/4
K: Dmajor
dB|:AD F/E/D ADGB|AD F/E/D EFGB|
AD F/E/D ADFA|1 B2 EF GA B/c/d:|2 B2 EF GABc||
|:dAFA BAFA|dAFA GFED|1 dAFA B/c/d AF|
G2 EF GABc:|2 dB c/B/A BGAF|GABc d2||

